img/icons/icon_acc_circle.svg

<svg xmlns="http://www.w3.org/2000/svg" width="40" height="40" fill="none"><path fill="#fff" d="M20 0C8.96 0 0 8.96 0 20s8.96 20 20 20 20-8.96 20-20S31.04 0 20 0Zm0 6c3.32 0 6 2.68 6 6s-2.68 6-6 6-6-2.68-6-6 2.68-6 6-6Zm0 28.4c-5 0-9.42-2.56-12-6.44.06-3.98 8-6.16 12-6.16 3.98 0 11.94 2.18 12 6.16-2.58 3.88-7 6.44-12 6.44Z"/></svg>

<svg width="40" height="40" viewBox="0 0 40 40" fill="none" xmlns="http://www.w3.org/2000/svg">
<path d="M20 0C8.96 0 0 8.96 0 20C0 31.04 8.96 40 20 40C31.04 40 40 31.04 40 20C40 8.96 31.04 0 20 0ZM20 6C23.32 6 26 8.68 26 12C26 15.32 23.32 18 20 18C16.68 18 14 15.32 14 12C14 8.68 16.68 6 20 6ZM20 34.4C15 34.4 10.58 31.84 8 27.96C8.06 23.98 16 21.8 20 21.8C23.98 21.8 31.94 23.98 32 27.96C29.42 31.84 25 34.4 20 34.4Z" fill="white"/>
</svg>
